X: 115
T:Wind that Shakes the Barley
M:4/4
L:1/8
Q:150
C:Traditional
S:Found on Internet, Similar to Jay Ungar's "Farmer Set" version
R:Reel
K:D
"D" A2 AB AFED|"G"B2 BA BcdB|"D"A2 AB AFED|"G"gfed B2 d2|!
"D"A2 AB AFED|"G"B2 BA BcdB|"D"A2 AB AFED|"G"gfed B2 d2:|!
"D"f2 fd "G"g2 ge|"D"f2 fd "A"edBA|"D"f2 fd "G"g2 ge|"D"afed "A"B2 d2|!
"D"f2 fd "G"g2 ge|"D"f2 fd "A"edBA|"D"defg afbf|[1"G"gfed B2d2:|[2"G"gfe
d "A"BcdB|"D"A8|]
